;Generated with Cura_SteamEngine 15.01
; Default start code
G28 ; Home extruder
G29 ;
G1 Z15 F100
M107 ; Turn off fan
G90 ; Absolute positioning
M82 ; Extruder in absolute mode
M190 S100
; Activate all used extruder
M104 T0 S270
G92 E0 ; Reset extruder position
; Wait for all used extruders to reach temperature
M109 T0 S270
;Layer count: 27
;LAYER:0
M107
G0 F9000 X110.020 Y17.675 Z0.150
;TYPE:SKIRT
G1 F1800 X130.679 Y17.675 E1.13633
G1 X134.861 Y13.494 E1.46159
G1 X170.863 Y13.494 E3.44185
G1 X175.864 Y18.494 E3.83082
G1 X196.522 Y18.494 E4.96709
G1 X196.522 Y71.814 E7.89990
G1 X177.215 Y71.814 E8.96187
G1 X176.889 Y72.336 E8.99572
G1 X175.145 Y75.128 E9.17679
G1 X172.208 Y79.814 E9.48098
G1 X122.861 Y79.814 E12.19526
G1 X110.020 Y66.973 E13.19412
G1 X110.020 Y17.675 E15.90571
G0 F9000 X110.860 Y18.515
G1 F1800 X131.027 Y18.515 E17.01497
G1 X135.209 Y14.334 E17.34024
G1 X170.515 Y14.334 E19.28221
G1 X175.516 Y19.334 E19.67118
G1 X195.682 Y19.334 E20.78039
G1 X195.682 Y70.974 E23.62080
G1 X176.750 Y70.974 E24.66213
G1 X176.177 Y71.891 E24.72161
G1 X174.433 Y74.683 E24.90268
G1 X171.744 Y78.974 E25.18121
G1 X123.209 Y78.974 E27.85083
G1 X110.860 Y66.625 E28.81143
G1 X110.860 Y18.515 E31.45767
G0 F9000 X111.700 Y19.355
G1 F1800 X131.375 Y19.355 E32.53987
G1 X135.557 Y15.174 E32.86514
G1 X170.167 Y15.174 E34.76882
G1 X175.168 Y20.174 E35.15780
G1 X194.842 Y20.174 E36.23995
G1 X194.842 Y70.134 E38.98794
G1 X176.285 Y70.134 E40.00865
G1 X175.465 Y71.446 E40.09375
G1 X173.721 Y74.237 E40.27478
G1 X171.279 Y78.134 E40.52773
G1 X123.557 Y78.134 E43.15263
G1 X111.700 Y66.277 E44.07496
G1 X111.700 Y19.355 E46.65585
G0 F9000 X112.540 Y20.195
G1 F1800 X131.723 Y20.195 E47.71099
G1 X135.905 Y16.014 E48.03626
G1 X169.819 Y16.014 E49.90166
G1 X174.820 Y21.014 E50.29064
G1 X194.002 Y21.014 E51.34573
G1 X194.002 Y69.294 E54.00132
G1 X175.819 Y69.294 E55.00145
G1 X174.753 Y71.000 E55.11210
G1 X173.009 Y73.791 E55.29312
G1 X170.814 Y77.294 E55.52050
G1 X123.905 Y77.294 E58.10069
G1 X112.540 Y65.929 E58.98474
G1 X112.540 Y20.195 E61.50029
G0 F9000 X113.380 Y21.035
G1 F1800 X132.071 Y21.035 E62.52837
G1 X136.253 Y16.854 E62.85364
G1 X169.472 Y16.854 E64.68081
G1 X174.472 Y21.854 E65.06975
G1 X193.162 Y21.854 E66.09777
G1 X193.162 Y68.454 E68.66096
G1 X175.353 Y68.454 E69.64052
G1 X174.040 Y70.555 E69.77680
G1 X172.297 Y73.346 E69.95779
G1 X170.349 Y76.454 E70.15954
G1 X124.252 Y76.454 E72.69506
G1 X113.380 Y65.582 E73.54077
G1 X113.380 Y21.035 E75.99103
G0 F9000 X114.220 Y21.875
G1 F1800 X132.419 Y21.875 E76.99204
G1 X136.601 Y17.694 E77.31731
G1 X169.124 Y17.694 E79.10620
G1 X174.124 Y22.694 E79.49514
G1 X192.322 Y22.694 E80.49610
G1 X192.322 Y67.614 E82.96688
G1 X174.888 Y67.614 E83.92582
G1 X171.584 Y72.901 E84.26874
G1 X169.884 Y75.614 E84.44484
G1 X124.600 Y75.614 E86.93564
G1 X114.220 Y65.234 E87.74307
G1 X114.220 Y21.875 E90.12799
G0 F9000 X115.060 Y22.715
G1 F1800 X132.767 Y22.715 E91.10194
G1 X136.949 Y18.534 E91.42721
G1 X168.776 Y18.534 E93.17782
G1 X173.776 Y23.534 E93.56676
G1 X191.482 Y23.534 E94.54066
G1 X191.482 Y66.774 E96.91903
G1 X174.423 Y66.774 E97.85734
G1 X170.872 Y72.455 E98.22584
G1 X169.419 Y74.774 E98.37636
G1 X124.948 Y74.774 E100.82245
G1 X115.060 Y64.886 E101.59161
G1 X115.060 Y22.715 E103.91118
G0 F9000 X115.900 Y23.555
G1 F1800 X133.114 Y23.555 E104.85802
G1 X137.297 Y19.374 E105.18332
G1 X168.428 Y19.374 E106.89565
G1 X173.428 Y24.374 E107.28459
G1 X190.642 Y24.374 E108.23143
G1 X190.642 Y65.934 E110.51739
G1 X173.957 Y65.934 E111.43513
G1 X170.160 Y72.009 E111.82918
G1 X168.954 Y73.934 E111.95412
G1 X125.296 Y73.934 E114.35549
G1 X115.900 Y64.538 E115.08638
G1 X115.900 Y23.555 E117.34060
G0 F9000 X116.740 Y24.395
G1 F1800 X133.462 Y24.395 E118.26038
G1 X137.644 Y20.214 E118.58565
G1 X168.080 Y20.214 E120.25975
G1 X173.080 Y25.214 E120.64868
G1 X189.802 Y25.214 E121.56846
G1 X189.802 Y65.094 E123.76202
G1 X173.491 Y65.094 E124.65919
G1 X169.448 Y71.564 E125.07883
G1 X168.489 Y73.094 E125.17815
G1 X125.644 Y73.094 E127.53480
G1 X116.740 Y64.190 E128.22741
G1 X116.740 Y24.395 E130.41630
G0 F9000 X117.580 Y25.235
G1 F1800 X133.810 Y25.235 E131.30901
G1 X137.992 Y21.054 E131.63428
G1 X167.732 Y21.054 E133.27009
G1 X172.732 Y26.054 E133.65903
G1 X188.962 Y26.054 E134.55175
G1 X188.962 Y64.254 E136.65290
G1 X173.026 Y64.254 E137.52944
G1 X168.736 Y71.118 E137.97466
G1 X168.024 Y72.254 E138.04840
G1 X125.992 Y72.254 E140.36033
G1 X117.580 Y63.842 E141.01468
G1 X117.580 Y25.235 E143.13821
G0 F9000 X118.420 Y26.075
G1 F1800 X134.158 Y26.075 E144.00387
G1 X138.340 Y21.894 E144.32913
G1 X167.384 Y21.894 E145.92667
G1 X172.384 Y26.894 E146.31561
G1 X188.122 Y26.894 E147.18126
G1 X188.122 Y63.414 E149.19000
G1 X172.560 Y63.414 E150.04597
G1 X168.024 Y70.672 E150.51674
G1 X167.559 Y71.414 E150.56491
G1 X126.340 Y71.414 E152.83212
G1 X118.420 Y63.494 E153.44819
G1 X118.420 Y26.075 E155.50638
G0 F9000 X119.260 Y26.915
G1 F1800 X134.506 Y26.915 E156.34497
G1 X138.688 Y22.734 E156.67024
G1 X167.036 Y22.734 E158.22949
G1 X172.036 Y27.734 E158.61843
G1 X187.282 Y27.734 E159.45702
G1 X187.282 Y62.574 E161.37336
G1 X172.095 Y62.574 E162.20870
G1 X167.095 Y70.574 E162.72761
G1 X126.688 Y70.574 E164.95015
G1 X119.260 Y63.146 E165.52796
G1 X119.260 Y26.915 E167.52081
G0 F9000 X120.620 Y28.185
G0 X123.460 Y31.115
;TYPE:WALL-INNER
G1 F1800 X136.245 Y31.115 E168.22403
G1 X140.428 Y26.934 E168.54934
G1 X165.296 Y26.934 E169.91718
G1 X170.296 Y31.934 E170.30611
G1 X183.082 Y31.934 E171.00939
G1 X183.082 Y33.002 E171.06814
G1 X181.863 Y32.842 E171.13576
G1 X180.485 Y33.022 E171.21220
G1 X179.195 Y33.558 E171.28904
G1 X178.084 Y34.420 E171.36639
G1 X177.254 Y35.517 E171.44205
G1 X176.730 Y36.778 E171.51716
G1 X176.548 Y38.163 E171.59399
G1 X176.738 Y39.556 E171.67132
G1 X177.277 Y40.837 E171.74777
G1 X178.129 Y41.933 E171.82412
G1 X179.223 Y42.761 E171.89959
G1 X180.484 Y43.286 E171.97472
G1 X181.871 Y43.468 E172.05167
G1 X183.082 Y43.303 E172.11889
G1 X183.082 Y47.002 E172.32235
G1 X181.863 Y46.842 E172.38998
G1 X180.485 Y47.022 E172.46642
G1 X179.195 Y47.558 E172.54325
G1 X178.093 Y48.412 E172.61994
G1 X177.261 Y49.498 E172.69519
G1 X176.730 Y50.779 E172.77146
G1 X176.548 Y52.163 E172.84824
G1 X176.738 Y53.558 E172.92568
G1 X177.279 Y54.838 E173.00212
G1 X178.122 Y55.924 E173.07773
G1 X179.205 Y56.754 E173.15279
G1 X180.485 Y57.286 E173.22903
G1 X181.871 Y57.468 E173.30592
G1 X183.082 Y57.303 E173.37314
G1 X183.082 Y58.374 E173.43205
G1 X169.767 Y58.374 E174.16443
G1 X164.767 Y66.374 E174.68334
G1 X140.356 Y66.374 E176.02604
G1 X140.356 Y59.589 E176.39924
G1 X124.593 Y59.589 E177.26627
G1 X124.593 Y62.539 E177.42853
G1 X123.460 Y61.406 E177.51666
G1 X123.460 Y57.928 E177.70797
G1 X124.689 Y58.090 E177.77615
G1 X126.078 Y57.900 E177.85326
G1 X127.351 Y57.368 E177.92915
G1 X128.438 Y56.531 E178.00461
G1 X129.280 Y55.434 E178.08068
G1 X129.812 Y54.152 E178.15702
G1 X129.992 Y52.778 E178.23324
G1 X129.812 Y51.400 E178.30968
G1 X129.280 Y50.121 E178.38588
G1 X128.437 Y49.020 E178.46215
G1 X127.334 Y48.175 E178.53857
G1 X126.055 Y47.645 E178.61473
G1 X124.680 Y47.464 E178.69101
G1 X123.460 Y47.625 E178.75869
G1 X123.460 Y43.026 E179.01166
G1 X123.893 Y43.151 E179.03645
G1 X125.291 Y43.175 E179.11335
G1 X126.659 Y42.826 E179.19101
G1 X127.855 Y42.151 E179.26655
G1 X128.835 Y41.207 E179.34139
G1 X129.552 Y40.018 E179.41776
G1 X129.936 Y38.677 E179.49449
G1 X129.957 Y37.295 E179.57051
G1 X129.625 Y35.953 E179.64655
G1 X128.950 Y34.735 E179.72315
G1 X127.986 Y33.738 E179.79943
G1 X126.799 Y33.025 E179.87559
G1 X125.467 Y32.642 E179.95183
G1 X124.078 Y32.618 E180.02824
G1 X123.460 Y32.773 E180.06328
G1 X123.460 Y31.115 E180.15448
G0 F9000 X138.580 Y42.417
G1 F1800 X137.939 Y43.959 E180.24633
G1 X137.939 Y44.476 E180.27477
G1 X137.850 Y45.147 E180.31200
G1 X138.035 Y46.578 E180.39137
G1 X138.587 Y47.911 E180.47072
G1 X139.566 Y49.186 E180.55914
G1 X140.009 Y49.468 E180.58803
G1 X140.627 Y49.935 E180.63063
G1 X141.932 Y50.478 E180.70838
G1 X143.373 Y50.668 E180.78833
G1 X144.813 Y50.470 E180.86828
G1 X146.120 Y49.926 E180.94615
G1 X146.522 Y49.618 E180.97400
G1 X147.338 Y50.679 E181.04762
G1 X147.818 Y51.047 E181.08089
G1 X147.439 Y51.959 E181.13522
G1 X147.439 Y52.476 E181.16365
G1 X147.350 Y53.147 E181.20088
G1 X147.535 Y54.578 E181.28025
G1 X147.877 Y55.404 E181.32942
G1 X147.439 Y56.461 E181.39236
G1 X147.439 Y56.974 E181.42057
G1 X147.349 Y57.647 E181.45792
G1 X147.535 Y59.078 E181.53729
G1 X148.087 Y60.411 E181.61665
G1 X149.066 Y61.686 E181.70507
G1 X149.500 Y61.962 E181.73336
G1 X150.103 Y62.427 E181.77524
G1 X151.434 Y62.978 E181.85448
G1 X152.862 Y63.167 E181.93371
G1 X154.290 Y62.978 E182.01294
G1 X155.619 Y62.428 E182.09205
G1 X156.760 Y61.552 E182.17118
G1 X157.636 Y60.411 E182.25030
G1 X158.186 Y59.082 E182.32941
G1 X158.375 Y57.654 E182.40864
G1 X158.186 Y56.226 E182.48787
G1 X157.846 Y55.404 E182.53680
G1 X158.186 Y54.582 E182.58573
G1 X158.375 Y53.154 E182.66496
G1 X158.186 Y51.726 E182.74419
G1 X157.905 Y51.047 E182.78461
G1 X158.386 Y50.677 E182.81799
G1 X159.200 Y49.617 E182.89150
G1 X159.623 Y49.939 E182.92074
G1 X160.953 Y50.482 E182.99976
G1 X162.376 Y50.667 E183.07869
G1 X163.823 Y50.473 E183.15899
G1 X165.154 Y49.901 E183.23868
G1 X166.270 Y49.042 E183.31614
G1 X167.147 Y47.892 E183.39569
G1 X167.690 Y46.562 E183.47470
G1 X167.875 Y45.135 E183.55385
G1 X167.680 Y43.707 E183.63313
G1 X167.127 Y42.382 E183.71210
G1 X166.247 Y41.244 E183.79123
G1 X165.103 Y40.372 E183.87035
G1 X163.770 Y39.823 E183.94964
G1 X162.343 Y39.642 E184.02876
G1 X160.919 Y39.833 E184.10779
G1 X159.587 Y40.390 E184.18720
G1 X159.200 Y40.690 E184.21413
G1 X158.708 Y40.049 E184.25858
G1 X158.393 Y39.634 E184.28724
G1 X157.905 Y39.260 E184.32106
G1 X158.186 Y38.584 E184.36132
G1 X158.376 Y37.143 E184.44127
G1 X158.178 Y35.703 E184.52122
G1 X157.846 Y34.904 E184.56881
G1 X158.186 Y34.082 E184.61774
G1 X158.375 Y32.654 E184.69697
G1 X158.186 Y31.226 E184.77620
G1 X157.636 Y29.897 E184.85531
G1 X156.760 Y28.756 E184.93444
G1 X155.619 Y27.880 E185.01356
G1 X154.290 Y27.330 E185.09267
G1 X152.862 Y27.141 E185.17190
G1 X151.434 Y27.330 E185.25113
G1 X150.105 Y27.880 E185.33025
G1 X148.955 Y28.763 E185.41000
G1 X148.080 Y29.917 E185.48965
G1 X147.439 Y31.459 E185.58151
G1 X147.439 Y31.976 E185.60994
G1 X147.350 Y32.647 E185.64717
G1 X147.535 Y34.078 E185.72654
G1 X147.877 Y34.904 E185.77571
G1 X147.537 Y35.730 E185.82485
G1 X147.349 Y37.154 E185.90385
G1 X147.537 Y38.578 E185.98286
G1 X147.818 Y39.260 E186.02343
G1 X147.759 Y39.305 E186.02751
G1 X147.342 Y39.622 E186.05632
G1 X146.523 Y40.690 E186.13035
G1 X146.119 Y40.380 E186.15836
G1 X144.790 Y39.830 E186.23747
G1 X143.362 Y39.641 E186.31670
G1 X141.934 Y39.830 E186.39593
G1 X140.605 Y40.380 E186.47505
G1 X139.455 Y41.263 E186.55480
G1 X138.580 Y42.417 E186.63445
G0 F9000 X139.315 Y42.839
G1 F1800 X138.779 Y44.127 E186.71119
G1 X138.779 Y44.533 E186.73352
G1 X138.697 Y45.149 E186.76770
G1 X138.854 Y46.359 E186.83481
G1 X139.321 Y47.487 E186.90197
G1 X140.142 Y48.557 E186.97615
G1 X140.483 Y48.773 E186.99835
G1 X141.048 Y49.201 E187.03734
G1 X142.152 Y49.660 E187.10310
G1 X143.370 Y49.821 E187.17068
G1 X144.591 Y49.653 E187.23847
G1 X145.696 Y49.193 E187.30431
G1 X146.661 Y48.453 E187.37120
G1 X146.720 Y48.375 E187.37658
G1 X146.822 Y48.621 E187.39122
G1 X147.937 Y50.080 E187.49223
G1 X148.856 Y50.785 E187.55594
G1 X148.815 Y50.839 E187.55966
G1 X148.279 Y52.127 E187.63640
G1 X148.279 Y52.533 E187.65873
G1 X148.197 Y53.149 E187.69291
G1 X148.354 Y54.359 E187.76003
G1 X148.787 Y55.404 E187.82224
G1 X148.279 Y56.629 E187.89519
G1 X148.279 Y57.033 E187.91741
G1 X148.197 Y57.648 E187.95154
G1 X148.354 Y58.859 E188.01870
G1 X148.821 Y59.987 E188.08585
G1 X149.642 Y61.057 E188.16004
G1 X149.975 Y61.269 E188.18175
G1 X150.527 Y61.693 E188.22004
G1 X151.654 Y62.160 E188.28714
G1 X152.862 Y62.319 E188.35415
G1 X154.070 Y62.160 E188.42117
G1 X155.195 Y61.694 E188.48815
G1 X156.161 Y60.953 E188.55512
G1 X156.902 Y59.987 E188.62208
G1 X157.368 Y58.862 E188.68906
G1 X157.527 Y57.654 E188.75608
G1 X157.368 Y56.446 E188.82310
G1 X156.936 Y55.404 E188.88514
G1 X157.368 Y54.362 E188.94718
G1 X157.527 Y53.154 E189.01420
G1 X157.368 Y51.946 E189.08122
G1 X156.902 Y50.821 E189.14820
G1 X156.872 Y50.782 E189.15090
G1 X157.787 Y50.078 E189.21441
G1 X158.643 Y48.964 E189.29168
G1 X158.897 Y48.630 E189.31476
G1 X159.003 Y48.374 E189.33000
G1 X159.072 Y48.463 E189.33620
G1 X160.043 Y49.203 E189.40335
G1 X161.169 Y49.663 E189.47025
G1 X162.374 Y49.819 E189.53708
G1 X163.597 Y49.655 E189.60495
G1 X164.726 Y49.171 E189.67252
G1 X165.670 Y48.445 E189.73802
G1 X166.411 Y47.472 E189.80529
G1 X166.871 Y46.346 E189.87220
G1 X167.028 Y45.138 E189.93920
G1 X166.863 Y43.929 E190.00632
G1 X166.394 Y42.808 E190.07316
G1 X165.650 Y41.845 E190.14009
G1 X164.682 Y41.107 E190.20704
G1 X163.554 Y40.643 E190.27413
G1 X162.346 Y40.489 E190.34112
G1 X161.140 Y40.651 E190.40805
G1 X160.014 Y41.122 E190.47518
G1 X159.042 Y41.875 E190.54281
G1 X159.001 Y41.929 E190.54654
G1 X158.895 Y41.672 E190.56183
G1 X158.050 Y40.571 E190.63817
G1 X157.792 Y40.232 E190.66160
G1 X156.867 Y39.522 E190.72574
G1 X156.909 Y39.467 E190.72955
G1 X157.368 Y38.364 E190.79526
G1 X157.529 Y37.146 E190.86284
G1 X157.361 Y35.925 E190.93063
G1 X156.936 Y34.904 E190.99146
G1 X157.368 Y33.862 E191.05351
G1 X157.527 Y32.654 E191.12052
G1 X157.368 Y31.446 E191.18754
G1 X156.902 Y30.321 E191.25452
G1 X156.161 Y29.355 E191.32149
G1 X155.195 Y28.614 E191.38845
G1 X154.070 Y28.148 E191.45543
G1 X152.862 Y27.989 E191.52245
G1 X151.654 Y28.148 E191.58946
G1 X150.529 Y28.614 E191.65644
G1 X149.556 Y29.361 E191.72391
G1 X148.815 Y30.339 E191.79141
G1 X148.279 Y31.627 E191.86814
G1 X148.279 Y32.033 E191.89047
G1 X148.197 Y32.649 E191.92465
G1 X148.354 Y33.859 E191.99177
G1 X148.786 Y34.903 E192.05391
G1 X148.355 Y35.949 E192.11614
G1 X148.197 Y37.154 E192.18299
G1 X148.355 Y38.359 E192.24983
G1 X148.820 Y39.487 E192.31694
G1 X148.851 Y39.527 E192.31973
G1 X148.279 Y39.965 E192.35935
G1 X147.940 Y40.223 E192.38279
G1 X146.828 Y41.672 E192.48325
G1 X146.720 Y41.932 E192.49874
G1 X146.661 Y41.855 E192.50407
G1 X145.695 Y41.114 E192.57104
G1 X144.570 Y40.648 E192.63802
G1 X143.362 Y40.489 E192.70503
G1 X142.154 Y40.648 E192.77205
G1 X141.029 Y41.114 E192.83903
G1 X140.056 Y41.861 E192.90650
G1 X139.315 Y42.839 E192.97399
G0 F9000 X128.775 Y39.679
G1 F1800 X129.098 Y38.553 E193.03842
G1 X129.116 Y37.391 E193.10235
G1 X128.836 Y36.263 E193.16627
G1 X128.269 Y35.239 E193.23066
G1 X127.459 Y34.402 E193.29472
G1 X126.461 Y33.802 E193.35877
G1 X125.342 Y33.480 E193.42282
G1 X124.174 Y33.460 E193.48707
G1 X123.041 Y33.743 E193.55131
G1 X122.620 Y33.977 E193.57780
G1 X122.620 Y30.275 E193.78143
G1 X135.898 Y30.275 E194.51177
G1 X140.080 Y26.094 E194.83704
G1 X165.644 Y26.094 E196.24316
G1 X170.644 Y31.094 E196.63209
G1 X183.922 Y31.094 E197.36244
G1 X183.922 Y34.215 E197.53410
G1 X183.017 Y33.841 E197.58797
G1 X181.862 Y33.689 E197.65204
G1 X180.705 Y33.841 E197.71623
G1 X179.621 Y34.291 E197.78079
G1 X178.686 Y35.015 E197.84583
G1 X177.989 Y35.938 E197.90945
G1 X177.549 Y36.997 E197.97253
G1 X177.396 Y38.161 E198.03710
G1 X177.555 Y39.333 E198.10216
G1 X178.009 Y40.409 E198.16639
G1 X178.724 Y41.330 E198.23053
G1 X179.645 Y42.026 E198.29402
G1 X180.703 Y42.467 E198.35707
G1 X181.869 Y42.620 E198.42175
G1 X183.043 Y42.460 E198.48693
G1 X183.922 Y42.089 E198.53940
G1 X183.922 Y48.215 E198.87636
G1 X183.017 Y47.841 E198.93022
G1 X181.862 Y47.689 E198.99430
G1 X180.705 Y47.841 E199.05848
G1 X179.621 Y48.291 E199.12304
G1 X178.694 Y49.010 E199.18757
G1 X177.995 Y49.922 E199.25077
G1 X177.549 Y50.999 E199.31489
G1 X177.396 Y52.161 E199.37936
G1 X177.556 Y53.335 E199.44453
G1 X178.010 Y54.410 E199.50872
G1 X178.719 Y55.323 E199.57230
G1 X179.629 Y56.020 E199.63535
G1 X180.705 Y56.467 E199.69943
G1 X181.869 Y56.620 E199.76401
G1 X183.043 Y56.460 E199.82918
G1 X183.922 Y56.089 E199.88166
G1 X183.922 Y59.214 E200.05355
G1 X170.233 Y59.214 E200.80650
G1 X165.233 Y67.214 E201.32540
